X: 62
T:Geordie Hinnie
% Nottingham Music Database
S:Trad, via EF
M:4/4
L:1/4
K:G
G/2B/2|"G"d2 d3/2e/2|"G"dB AG|"C"cd ef|"C"g2 fe|"G"dd dd|"G"ed BG|"Am"A4-|\
"D7"A2 GB|
"G"d2 d3/2e/2|"G"dB AG|"C"cd ef|"C"g2 fe|"G"d2 fe|"D7"d_d cA|"G"G4-|"G7"G2 AB|
P:*
"C"cc cc|"C"cc dc|"G"cB B^A|"G"B2 GB|"G"dd dd|"G"ed BG|"Am"A4-|"D7"A2 GB|
"G"d2 d3/2e/2|"G"dB AG|"C"cd ef|"C"g2 fe|"G"d2 fe|"D7"d_d cA|"G"G4-|"G"G3||<end>
<start>
